X: 41
T:With Booze You Lose
% Nottingham Music Database
S:Bob McQuillen Sept 1975, via PR
M:4/4
L:1/4
K:A
EF G|"A"A2 A2|"E7"B2 AG|"A"A3/2B/2 cA|EA cd|"A"e2 e3/2e/2|"D"fe dc|\
"Bm"cB B3/2c/2|
"E7"Bd cB|"A"A2 A2|"E7"B2 AG|"A"A3/2B/2 cA|EA cd|"E7"e3/2f/2 ed|"A"cB "E7"AG|\
"A"A4-|A AG A|"E"B2 E2|Bc dB|"A"c2 A2|A2 GA|"E"B2 E2|Bc de|"A"c4-|c2 AB|
"A"c2 A2|"A7"Bc de|"D"f3/2e/2 fg|af ed|"A"c3/2B/2 "D"AF|"E7"EG BG|"A"A4-|A||


